resources/svg/solaris.svg

<svg xmlns="http://www.w3.org/2000/svg" viewBox="0 0 24 24" fill="currentColor"><path fill="currentColor" fill-rule="evenodd" d="M10.1802464,4.7643196 C9.30783675,4.45498283 8.90876565,3.63737375 8.90876565,3.63737375 C8.84089823,3.54283936 8.5558284,2.85816509 8.5562284,2.85789842 C8.25689174,2.06482294 7.71088568,1.82242025 7.71088568,1.82242025 C7.03954488,1.42788253 6.21046901,1.41801576 6.21046901,1.41801576 C6.24620274,1.4132157 6.70394115,1.62521806 6.70394115,1.62521806 C7.78395316,2.13989044 7.46048289,3.3691041 7.46048289,3.3691041 C7.39021545,3.70004111 7.37381526,4.33911488 7.37381526,4.33911488 C7.35914843,5.19085768 7.96582184,5.60659563 8.03302259,5.65099612 C8.3674263,5.44779386 8.7239636,5.26739186 9.09756775,5.1147235 C9.45570506,4.96832187 9.81744242,4.85138724 10.1802464,4.7643196 M5.59699552,8.17022411 C4.76098623,8.56862854 3.90111001,8.27249192 3.90111001,8.27249192 C3.78604207,8.25382504 3.10043445,7.97115524 3.10043445,7.97115524 C2.32802587,7.62208469 1.77081968,7.83648707 1.77081968,7.83648707 C1.0168113,8.03182258 0.423738042,8.61142902 0.423738042,8.61142902 C0.445338282,8.58276203 0.919076879,8.40889343 0.919076879,8.40889343 C2.04668941,8.00915566 2.68682985,9.10716786 2.68682985,9.10716786 C2.87149857,9.39063767 3.31177013,9.85410949 3.31177013,9.85410949 C3.9033767,10.4670496 4.62685141,10.3319815 4.70538562,10.3161146 C4.79818665,9.93531039 4.9228547,9.55610618 5.0791231,9.18383538 C5.2288581,8.82703141 5.40166002,8.48876099 5.59699552,8.17022411 M4.76458627,13.8196202 C4.45511617,14.6924299 3.63764042,15.0916344 3.63764042,15.0916344 C3.54310603,15.1592351 2.85843176,15.4444383 2.85816509,15.4443049 C2.06508961,15.7436416 1.82268692,16.2895143 1.82268692,16.2895143 C1.42788253,16.9605885 1.41854909,17.7897977 1.41854909,17.7897977 C1.41361571,17.7540639 1.62535139,17.2963255 1.62535139,17.2963255 C2.14002378,16.2163135 3.36950411,16.5401838 3.36950411,16.5401838 C3.70004111,16.6097846 4.33898154,16.6264514 4.33898154,16.6264514 C5.19085768,16.6415182 5.6068623,16.0343115 5.65099612,15.9676441 C5.4479272,15.6325737 5.26765853,15.2763031 5.1151235,14.9026989 C4.96832187,14.5444283 4.8512539,14.1826909 4.76458627,13.8196202 M8.17075745,18.4032711 C8.56889521,19.2391471 8.27315859,20.0994233 8.27315859,20.0994233 C8.25435838,20.2138246 7.97155524,20.9000989 7.97128857,20.8999656 C7.62195136,21.6722408 7.83675374,22.2297137 7.83675374,22.2297137 C8.03195591,22.9835887 8.61169569,23.5767953 8.61169569,23.5767953 C8.5830287,23.5549284 8.40902677,23.0813231 8.40902677,23.0813231 C8.00942233,21.9535773 9.1077012,21.3135702 9.1077012,21.3135702 C9.39103768,21.1287681 9.85464283,20.6884965 9.85464283,20.6884965 C10.4673163,20.09689 10.3325148,19.3735486 10.3163813,19.2951477 C9.9357104,19.2019467 9.55610618,19.077412 9.18370204,18.9211436 C8.82703141,18.7716752 8.48876099,18.5984733 8.17075745,18.4032711 M13.8200202,19.2359471 C14.6929633,19.5448838 15.0917677,20.3626263 15.0917677,20.3626263 C15.1596351,20.4571606 15.4445716,21.1421016 15.4441716,21.1423682 C15.7435083,21.9353104 16.289781,22.1777131 16.289781,22.1777131 C16.9609885,22.5727841 17.7900643,22.5822509 17.7900643,22.5822509 C17.7545973,22.5869176 17.2967255,22.3749153 17.2967255,22.3749153 C16.2163135,21.8602429 16.5403171,20.6311626 16.5403171,20.6311626 C16.6103179,20.3000922 16.6264514,19.6612851 16.6264514,19.6612851 C16.6416516,18.8092757 16.0344448,18.393271 15.9680441,18.3492705 C15.6328404,18.5524728 15.2767031,18.7326081 14.9026989,18.8852765 C14.5448283,19.0319448 14.1833576,19.1488794 13.8200202,19.2359471 M18.4035378,15.8299092 C19.2394138,15.4312381 20.09969,15.7275081 20.09969,15.7275081 C20.2146246,15.7463083 20.9002322,16.0291114 20.8999656,16.0293781 C21.6726408,16.3783153 22.2299803,16.1636463 22.2299803,16.1636463 C22.984122,15.9681774 23.5769286,15.3887043 23.5769286,15.3887043 C23.5551951,15.4175046 23.0818565,15.5911066 23.0818565,15.5911066 C21.9538439,15.990711 21.3135702,14.8928321 21.3135702,14.8928321 C21.1287681,14.6093623 20.6887632,14.1460238 20.6887632,14.1460238 C20.0970233,13.532817 19.3736819,13.6680185 19.2952811,13.6838854 C19.2023467,14.0645563 19.0775453,14.4441605 18.9214102,14.816298 C18.7720752,15.1731019 18.5988733,15.5113723 18.4035378,15.8299092 M19.2364804,10.1802464 C19.5455505,9.30757008 20.3628929,8.90849898 20.3628929,8.90849898 C20.4574273,8.84063156 21.1426349,8.55542839 21.1429016,8.55596173 C21.9351771,8.25662507 22.1777131,7.71101901 22.1777131,7.71101901 C22.5726508,7.03927821 22.5826509,6.21046901 22.5826509,6.21046901 C22.587051,6.24593607 22.3753153,6.70367449 22.3753153,6.70367449 C21.8606429,7.78368649 20.6312959,7.46021622 20.6312959,7.46021622 C20.3003589,7.39034878 19.6615518,7.37368193 19.6615518,7.37368193 C18.809409,7.35848176 18.393671,7.96582184 18.3492705,8.03235592 C18.5527395,8.36729297 18.7330081,8.72383026 18.8854098,9.09756775 C19.0323448,9.45557173 19.1488794,9.81730908 19.2364804,10.1802464 M15.8303092,5.59659552 C15.4316381,4.76111957 15.7273747,3.90084334 15.7273747,3.90084334 C15.7464416,3.78604207 16.0289781,3.09990111 16.0296448,3.10030111 C16.378582,2.32789253 16.1639129,1.77055301 16.1639129,1.77055301 C15.9681774,1.01641129 15.3892377,0.423471372 15.3892377,0.423471372 C15.417638,0.445338282 15.5916399,0.918810209 15.5916399,0.918810209 C15.9909777,2.04642274 14.8928321,2.68669652 14.8928321,2.68669652 C14.609629,2.87163191 14.1464238,3.31150346 14.1464238,3.31150346 C13.5330837,3.9029767 13.6684185,4.62658474 13.6844187,4.70525228 C14.0649563,4.79791998 14.4445605,4.92298803 14.8164313,5.07885643 C15.1732353,5.22819142 15.511639,5.40139335 15.8301759,5.59659552 M7.58741764,5.98366649 C6.66234069,6.02633363 5.98473316,5.41926021 5.98473316,5.41926021 C5.88633207,5.35752619 5.36419294,4.83058701 5.36432627,4.830187 C4.78831987,4.2085801 4.19124657,4.19017989 4.19124657,4.19017989 C3.42070467,4.07711197 2.64896277,4.38084868 2.64896277,4.38084868 C2.68016311,4.36271514 3.18416871,4.38658207 3.18416871,4.38658207 C4.37844865,4.45618285 4.5417838,5.71699686 4.5417838,5.71699686 C4.60205113,6.04966722 4.82752031,6.6478072 4.82752031,6.6478072 C5.13472372,7.44248269 5.85366504,7.5987511 5.93233258,7.61448461 C6.16580184,7.30021445 6.42793809,6.99874443 6.71660796,6.71660796 C6.99314437,6.44580495 7.2839476,6.20113557 7.58741764,5.98366649 M4.6256514,10.8662541 C4.00151113,11.5502617 3.0933677,11.6003956 3.0933677,11.6003956 C2.97989978,11.6261292 2.23829154,11.6227958 2.23829154,11.6223958 C1.39108212,11.5899954 0.955743953,11.9990667 0.955743953,11.9990667 C0.331337015,12.4642718 0,13.2248136 0,13.2248136 C0.00946677185,13.1897466 0.382670919,12.8502761 0.382670919,12.8502761 C1.27641418,12.0552006 2.2833587,12.8309426 2.2833587,12.8309426 C2.56109512,13.0237447 3.14363493,13.2873476 3.14363493,13.2873476 C3.92271025,13.6320181 4.5417838,13.234147 4.60845121,13.1896132 C4.5513839,12.8021422 4.52338359,12.4037378 4.52805031,12.0002667 C4.53218369,11.612929 4.56498406,11.2343915 4.6256514,10.8662541 M5.98393315,16.4127157 C6.02646696,17.3377926 5.41952688,18.0155335 5.41952688,18.0155335 C5.35752619,18.1140679 4.83058701,18.6360737 4.83032034,18.6359404 C4.2085801,19.2119468 4.19004656,19.8090201 4.19004656,19.8090201 C4.07711197,20.5794287 4.38084868,21.3513039 4.38084868,21.3513039 C4.36284848,21.3201036 4.38658207,20.8162313 4.38658207,20.8162313 C4.45631618,19.6216847 5.71673019,19.4584829 5.71673019,19.4584829 C6.04966722,19.3982155 6.6478072,19.1728797 6.6478072,19.1728797 C7.44248269,18.8658096 7.59901777,18.1466016 7.61461794,18.0680674 C7.30021445,17.8343315 6.9990111,17.5721952 6.7167413,17.2836587 C6.44580495,17.007389 6.2012689,16.7163191 5.98393315,16.4127157 M10.8663874,19.3746153 C11.550395,19.9987555 11.6002622,20.906899 11.6002622,20.906899 C11.6262625,21.0203669 11.6227958,21.7622418 11.6225291,21.7622418 C11.5902621,22.6090512 11.9993333,23.0446561 11.9993333,23.0446561 C12.4644052,23.6693297 13.2248136,24 13.2248136,24 C13.1900132,23.9905332 12.8504094,23.6175958 12.8504094,23.6175958 C12.0552006,22.7237192 12.8310759,21.7170413 12.8310759,21.7170413 C13.023878,21.4391715 13.2873476,20.8566317 13.2873476,20.8566317 C13.6320181,20.0775564 13.2340137,19.4584829 13.1900132,19.3916821 C12.8022756,19.4491494 12.4038712,19.4767497 12.0001333,19.4722164 C11.6131957,19.4679496 11.2345248,19.4354159 10.8663874,19.3746153 M16.4129824,18.0166002 C17.3380593,17.9740664 18.0155335,18.5810065 18.0155335,18.5810065 C18.1140679,18.6427405 18.6363404,19.1696797 18.6359404,19.1699463 C19.2119468,19.7916866 19.8092868,19.8104868 19.8092868,19.8104868 C20.5798287,19.923288 21.3514372,19.6195513 21.3514372,19.6195513 C21.3202369,19.6372849 20.8162313,19.6136846 20.8162313,19.6136846 C19.621818,19.5439505 19.4584829,18.2834031 19.4584829,18.2834031 C19.3983489,17.9505995 19.1727464,17.3525928 19.1727464,17.3525928 C18.8656763,16.557784 18.1466016,16.4012489 18.0682008,16.3855154 C17.8345982,16.7001856 17.5723286,17.0013889 17.2836587,17.2835254 C17.007389,17.5544617 16.7164524,17.7989978 16.4129824,18.0166002 M19.3748819,13.1341459 C19.9988889,12.4497383 20.9070323,12.3998711 20.9070323,12.3998711 C21.0206336,12.3740042 21.7625085,12.3772042 21.7625085,12.3780042 C22.6093179,12.4098712 23.0446561,12.0008 23.0446561,12.0008 C23.669463,11.5355948 24.0004,10.7755864 24.0004,10.7755864 C23.9907999,10.8102534 23.6177291,11.1498572 23.6177291,11.1498572 C22.7239858,11.9451994 21.7167746,11.1693241 21.7167746,11.1693241 C21.4391715,10.9763886 20.8568984,10.7130524 20.8568984,10.7130524 C20.0775564,10.3682485 19.4584829,10.7659863 19.3919488,10.8102534 C19.4491494,11.1978578 19.4767497,11.5965289 19.472083,12 C19.4683496,12.3869376 19.4354159,12.7654752 19.3748819,13.1341459 M18.0167335,7.5872843 C17.973933,6.66220736 18.5808731,5.98473316 18.5808731,5.98473316 C18.6430071,5.88619874 19.1699463,5.36379293 19.170213,5.3640596 C19.7916866,4.78831987 19.8104868,4.19124657 19.8104868,4.19124657 C19.9231547,3.42030467 19.619818,2.64896277 19.619818,2.64896277 C19.6375515,2.68002978 19.6136846,3.18416871 19.6136846,3.18416871 C19.5439505,4.37844865 18.2835365,4.54165046 18.2835365,4.54165046 C17.9505995,4.6019178 17.3527261,4.82752031 17.3527261,4.82752031 C16.557784,5.13445705 16.4013822,5.85366504 16.3853821,5.93206591 C16.7000522,6.16553517 17.0013889,6.42820476 17.2835254,6.71647463 C17.5547284,6.9928777 17.7989978,7.28354759 18.0167335,7.5872843 M13.1341459,4.62551806 C12.450005,4.00164446 12.3997378,3.09323437 12.3997378,3.09323437 C12.3742708,2.97963311 12.3773375,2.23789153 12.3778709,2.23789153 C12.4101379,1.39094879 12.0012,0.955743953 12.0012,0.955743953 C11.5358615,0.330803676 10.7757197,0 10.7757197,0 C10.8103868,0.00946677185 11.1499906,0.382537584 11.1499906,0.382537584 C11.9451994,1.27654752 11.1693241,2.2833587 11.1693241,2.2833587 C10.976522,2.56122846 10.713319,3.14336826 10.713319,3.14336826 C10.3681152,3.92271025 10.766253,4.54165046 10.8103868,4.60858454 C11.1979911,4.5509839 11.5965289,4.52365026 12,4.52818365 C12.3869376,4.53191702 12.7656085,4.56485072 13.1340126,4.62551806"/></svg>

<svg viewBox="0 0 24 24"><path fill="currentColor" fill-rule="evenodd" d="M10.18 4.764C9.308 4.455 8.91 3.637 8.91 3.637c-.068-.094-.353-.779-.353-.78c-.3-.792-.845-1.035-.845-1.035c-.671-.394-1.5-.404-1.5-.404c.035-.005.493.207.493.207c1.08.515.756 1.744.756 1.744c-.07.331-.086.97-.086.97a1.55 1.55 0 0 0 .659 1.312a7.557 7.557 0 0 1 2.147-.887M5.597 8.17c-.836.399-1.696.102-1.696.102c-.115-.018-.8-.3-.8-.3c-.773-.35-1.33-.136-1.33-.136c-.754.196-1.347.775-1.347.775c.021-.028.495-.202.495-.202c1.128-.4 1.768.698 1.768.698c.184.284.625.747.625.747a1.551 1.551 0 0 0 1.393.462a7.54 7.54 0 0 1 .892-2.146m-.832 5.65c-.31.872-1.127 1.272-1.127 1.272c-.095.067-.78.352-.78.352c-.793.3-1.035.846-1.035.846c-.395.67-.404 1.5-.404 1.5c-.005-.036.206-.494.206-.494c.515-1.08 1.745-.756 1.745-.756c.33.07.969.086.969.086a1.55 1.55 0 0 0 1.312-.658a7.596 7.596 0 0 1-.886-2.148m3.406 4.583c.398.836.102 1.696.102 1.696c-.019.115-.301.801-.302.801c-.349.772-.134 1.33-.134 1.33c.195.754.775 1.347.775 1.347c-.029-.022-.203-.496-.203-.496c-.4-1.127.699-1.767.699-1.767c.283-.185.747-.626.747-.626a1.55 1.55 0 0 0 .461-1.393a7.602 7.602 0 0 1-2.145-.892m5.649.833c.873.309 1.272 1.127 1.272 1.127c.068.094.353.78.352.78c.3.792.846 1.035.846 1.035c.671.395 1.5.404 1.5.404c-.035.005-.493-.207-.493-.207c-1.08-.515-.757-1.744-.757-1.744c.07-.33.086-.97.086-.97a1.55 1.55 0 0 0-.658-1.312a7.587 7.587 0 0 1-2.148.887m4.584-3.406c.835-.399 1.696-.102 1.696-.102c.115.018.8.301.8.301c.773.35 1.33.135 1.33.135c.754-.196 1.347-.775 1.347-.775c-.022.029-.495.202-.495.202c-1.128.4-1.768-.698-1.768-.698c-.185-.284-.625-.747-.625-.747a1.55 1.55 0 0 0-1.394-.462a7.573 7.573 0 0 1-.891 2.146m.832-5.65c.31-.872 1.127-1.272 1.127-1.272c.094-.067.78-.353.78-.352c.792-.3 1.035-.845 1.035-.845c.395-.672.405-1.5.405-1.5c.004.035-.208.493-.208.493c-.514 1.08-1.744.756-1.744.756c-.33-.07-.97-.086-.97-.086a1.551 1.551 0 0 0-1.312.658c.204.335.384.692.536 1.066c.147.358.264.72.351 1.082M15.83 5.597c-.398-.836-.103-1.696-.103-1.696c.02-.115.302-.801.303-.8c.349-.773.134-1.33.134-1.33c-.196-.755-.775-1.348-.775-1.348c.029.022.203.496.203.496c.399 1.127-.7 1.768-.7 1.768c-.282.185-.746.625-.746.625a1.55 1.55 0 0 0-.462 1.393a7.562 7.562 0 0 1 2.146.892m-8.243.387c-.925.042-1.602-.565-1.602-.565c-.099-.061-.62-.588-.62-.589c-.577-.621-1.174-.64-1.174-.64c-.77-.113-1.542.19-1.542.19c.031-.017.535.007.535.007c1.194.07 1.358 1.33 1.358 1.33c.06.333.286.93.286.93a1.55 1.55 0 0 0 1.104.967a7.566 7.566 0 0 1 1.655-1.63m-2.961 4.882c-.624.684-1.533.734-1.533.734c-.113.026-.855.023-.855.022C1.391 11.59.956 12 .956 12C.33 12.464 0 13.225 0 13.225c.01-.035.383-.375.383-.375c.893-.795 1.9-.02 1.9-.02c.278.194.86.457.86.457a1.55 1.55 0 0 0 1.465-.097a7.57 7.57 0 0 1 .018-2.324m1.358 5.547c.042.925-.564 1.603-.564 1.603c-.062.098-.59.62-.59.62c-.621.576-.64 1.173-.64 1.173c-.113.77.19 1.542.19 1.542c-.017-.03.007-.535.007-.535c.07-1.194 1.33-1.358 1.33-1.358c.333-.06.93-.285.93-.285a1.55 1.55 0 0 0 .968-1.105a7.603 7.603 0 0 1-1.631-1.655m4.882 2.962c.684.624.734 1.532.734 1.532c.026.113.023.855.023.855c-.033.847.376 1.283.376 1.283c.465.624 1.226.955 1.226.955c-.035-.01-.375-.382-.375-.382c-.795-.894-.019-1.901-.019-1.901c.193-.278.456-.86.456-.86a1.552 1.552 0 0 0-.097-1.465a7.544 7.544 0 0 1-2.324-.017m5.547-1.358c.925-.043 1.603.564 1.603.564c.098.062.62.589.62.589c.576.622 1.173.64 1.173.64c.77.113 1.542-.19 1.542-.19c-.03.017-.535-.006-.535-.006c-1.194-.07-1.358-1.33-1.358-1.33c-.06-.333-.285-.931-.285-.931a1.55 1.55 0 0 0-1.105-.967a7.55 7.55 0 0 1-1.655 1.63m2.962-4.882c.624-.684 1.532-.734 1.532-.734c.114-.026.856-.023.856-.022c.846.032 1.282-.377 1.282-.377c.624-.465.955-1.225.955-1.225c-.01.034-.382.374-.382.374c-.894.795-1.901.02-1.901.02c-.278-.194-.86-.457-.86-.457a1.55 1.55 0 0 0-1.465.097a7.56 7.56 0 0 1-.017 2.324m-1.358-5.547c-.043-.925.564-1.602.564-1.602c.062-.099.589-.621.59-.62c.62-.577.64-1.174.64-1.174c.112-.77-.191-1.542-.191-1.542c.018.031-.006.535-.006.535c-.07 1.194-1.33 1.358-1.33 1.358c-.333.06-.931.286-.931.286a1.551 1.551 0 0 0-.968 1.104a7.574 7.574 0 0 1 1.632 1.655m-4.883-2.961c-.684-.624-.734-1.533-.734-1.533c-.026-.113-.023-.855-.022-.855C12.41 1.39 12 .956 12 .956C11.536.33 10.776 0 10.776 0c.034.01.374.383.374.383c.795.894.02 1.9.02 1.9c-.193.278-.457.86-.457.86c-.345.78.053 1.399.097 1.466a7.526 7.526 0 0 1 2.324.017"/></svg>
